X:1
T:James Gibb editions
T:Speciosa facta es - Dunstable
T:#
%%score [ 1 2 3 ]
L:1/8
Q:1/4=120
M:3/4
K:F
V:1 treble nm="Soprano" snm="S"
V:2 treble nm="Alto" snm="A"
V:3 treble-8 nm="Tenor" snm="T"
V:1
 F6- | F4 G2 | (A3"^Speciosa facta es" G) E2 | (F2 DEFG | E2 A3 G | G2- (3G^FG) (3:2:2(F2 E) | %6
w: Spe\-|* ci-|o\- * sa|fa\- * * * *||* * * * cta *|
 G2"^John Dunstable\n(1390-1453)" z2 (=Bc) | (d2 c A2 B) | (dc) A2 B2- | B2 B2 GG | G2 A2 AA | %11
w: es et *|su\- * * *|a\- * vis in|* de- li- ci-|is vir- gi- ni-|
 (G2 EC D2 | C F4 E) | F2 z2 (A=B) | (c4 A2) | (G2 A) (c2 =B) | (A2 cB d2 | c =B>G) (G2 ^F) | %18
w: ta\- * * *||tis san\- *|cta *|De\- * i *|Ge\- * * *|* * * ni\- *|
 G2 z2 E2 | G3 (FED) | C2 z2 (FG) | (A2 B3 A) | A2 (GA G2) | A2 z2 c2 | c3 c c2 | BB d4 | %26
w: tnx quam|vi- den\- * *|tes fi\- *|li\- * *|ae Si\- * *|on ver-|nan- tem in|flo- ri- bus|
 (c2 BA) (GA | =B d>c c2) B | c2 z2 =B2 | cc A2 z2 | z2 z2 A2 | (A4 G2) | (A2 E2 F2 | z6 | %34
w: ro\- * * sa\- *||rum et|li- li- is|con-|val\- *|li\- * *||
 A3 B c2 | c3 BAG | G4 ^F2 | G2) z2 (G2 | A3 G) E2 | (FE/F/ GF) D2 | (C2 z B, C2) | z2 cc c2 | %42
w: |||um be\-|* * a-|tis\- * * * * si-|mam * *|pre- di- ca-|
 (d2 B3 G | G2 E2 ^FE/F/) | G2 z2 =B2 | c2 c2 A2 | (G2 A c2 =B) | G2 z2 z2 | (A2 c3 d | %49
w: ve\- * *||runt et|re- gi- nae|lau\- * * *|da-|ve\- * *|
 =BG A G2 E | D2) (C2 G2) | z2 (Acdc | c=B c2 A_B | A>F F>D ED/E/) | F6 |] %55
w: |* runt *|e\- * * *|||am.|
V:2
 F6 | F4 C2 | E4 z2 | (D2 B,2 D2 | C2 E2 D2 | D4) ^C2 | D2 G4 | (D2 F4) | F2 F2 G2- | G2 G2 DD | %10
w: Spe-|ci- o-|sa|fa\- * *||* cta|es et|su\- *|a- vis in|* de- li- ci-|
 D2 F4 | (E2 GE) F2 | (E2 DC =B,2) | C4 z2 | E4 F2 | (G>E F2) (ED) | (F2 E G2 F | E D2) C A,2 | %18
w: is vir-|gi\- * * ni-|ta\- * * *|tis|san- cta|De\- * * i *|Ge\- * * *|* * ni- trix|
 D4 z2 | D4 (G2 | E4) D2 | E2 F4 | E2 D4 | F4 C2 | F,2 F,2 A,2 | G,2 G,2 G,2 | (G2 FE) (E2 | %27
w: quam|vi- den\-|* tes|fi- li-|ae Si-|on ver-|nan- tem in|flo- ri- bus|ro\- * * sa\-|
 F A2 G2 ^F) | G4 z2 | z2 z2 E2 | FE D2 C2 | F,4 G,2 | F,2 z2 z2 | (C B,2 A, G,2) | F,6- | %35
w: |rum|et|li- li- is con-|val- li-|um,|con\- * * *|val\-|
 F,4 (B,2 | D2 C4) | D4 z2 | E4 G2 | A2 z2 F2 | z (GFD E2) | F4 F2 | G4 (D2- | D2 C4) | D4 E2 | %45
w: * li\-||um|be- a-|tis- si-|mam * * *|pre- di-|ca- ve\-||runt et|
 z (F4 C) | (E4 C2- | C2) F,4 | (C2 D) (F2 E) | (DE C E2 G- | GF) E4 | (F2 D z FG- | GF G2 FD | %53
w: re\- *|gi\- *|* nae|lau\- * da\- *|ve\- * * * *|* * runt|e\- * * *||
 E2 CD =B,2) | C6 |] %55
w: |am.|
V:3
 f6- | f4 e2 | c4 c2 | (d4 B2 | c4) B2- | B2 A4 | G6 | (G2 d2) d2- | d2 d2 G2- | G2 G2 BB | B2 F4 | %11
w: Spe\-|* ci-|o- sa|fa\- *|* cta|* es|et|su\- * a\-|* vis in|* de- li- ci-|is vir-|
 c4 B2 | (cABA G2) | F6 | z6 | z6 | z6 | z6 | G6- | G2 B4 | c4 B2 | A2 d4 | c2 B4 | F4 F2 | %24
w: gl- ni-|ta\- * * * *|tis|||||quam|* vi-|den- tes|fi- li-|ae Si-|on ver-|
 f2 f2 f2 | g2 g2 g2 | (e2 de) (c2 | d f2 e d2) | c4 d2 | c4 G2 | F6 | (c2 A2) B2 | (c4 d2 | %33
w: nan- tem in|flo- ri- bus|ro\- * * sa\-||rum et|li- li-|is|con\- * val-|li\- *|
 e g>f f2 e | f3 e dc | c4 B2- | B2 A4) | G6 | c6 | A2 B4 | c2 d2 z c | F4 A2 | (G4 B2- | %43
w: ||||um|be-|a- tis-|si- mam pre-|di- ca-|ve\- *|
 B2 c2 A2) | G6 | F2 F2 F2 | c4 z2 | (c2 d) (f2 e) | c2 F4 | z2 (c4 | B2) c4 | (d2 f3 e | %52
w: |runt|et re- gi-|nae|lau\- * da\- *|ve- runt,|lau\-|* da-|ve\- * *|
 d2) c2 (d2 | c A2 B G2) | F6 |] %55
w: * runt e\-||am.|

